icons/svgs/signal-alt-outline.svg

<svg width="24" height="24" viewBox="0 0 24 24" fill="none" xmlns="http://www.w3.org/2000/svg">
<path d="M1.46197 12.0156C1.08698 12.3672 0.524497 12.3281 0.224507 11.9375C-0.112982 11.5469 -0.0754832 10.9609 0.299505 10.6094C3.4119 7.75781 7.49927 6 11.9991 6C16.4615 6 20.5488 7.75781 23.6612 10.6094C24.0362 10.9609 24.0737 11.5469 23.7737 11.9375C23.4363 12.3281 22.8738 12.3672 22.4988 12.0156C19.6864 9.4375 16.0115 7.875 11.9991 7.875C7.94926 7.875 4.27438 9.4375 1.46197 12.0156ZM11.9991 14.75C9.56171 14.75 7.34928 15.7266 5.69933 17.3281C5.32434 17.6797 4.76186 17.6406 4.42437 17.25C4.08688 16.8594 4.12438 16.2734 4.46187 15.9219C6.44931 14.0469 9.07422 12.875 11.9991 12.875C14.8865 12.875 17.5114 14.0469 19.4989 15.9219C19.8364 16.2734 19.8739 16.8594 19.5364 17.25C19.1989 17.6406 18.6364 17.6797 18.2614 17.3281C16.6115 15.7266 14.399 14.75 11.9991 14.75Z" fill="black"/>
</svg>

<svg xmlns="http://www.w3.org/2000/svg" width="24" height="24" fill="currentColor" class="icon-signal-alt-outline" viewBox="0 0 24 24">
  <mask id="a" width="25" height="12" x="-1" y="6" maskUnits="userSpaceOnUse" style="mask-type:alpha">
    <path d="M1.462 12.016c-.375.351-.937.312-1.237-.079A.96.96 0 0 1 .3 10.61C3.412 7.758 7.5 6 12 6c4.462 0 8.55 1.758 11.662 4.61.375.35.412.937.112 1.328-.338.39-.9.43-1.275.078-2.812-2.578-6.487-4.141-10.5-4.141-4.05 0-7.724 1.563-10.537 4.14M12 14.75c-2.437 0-4.65.977-6.3 2.578a.87.87 0 0 1-1.274-.078.997.997 0 0 1 .037-1.328C6.45 14.047 9.074 12.875 12 12.875c2.888 0 5.513 1.172 7.5 3.047a.997.997 0 0 1 .038 1.328c-.338.39-.9.43-1.275.078C16.613 15.727 14.4 14.75 12 14.75"/>
  </mask>
  <g mask="url(#a)">
    <path d="M0 0h24v24H0z"/>
  </g>
</svg>
